src/assets/img/games/patojdur/logo.svg

<svg xmlns:xlink="http://www.w3.org/1999/xlink" height="58.45" width="59" xmlns="http://www.w3.org/2000/svg"><g transform="translate(1 .95)"><use height="58.45" transform="translate(-1 -.95)" width="59" xlink:href="#a"/><use height="34.8" transform="translate(11.1 7.1)" width="34.3" xlink:href="#b"/></g><defs><path d="M41.3 41.05q-2.45 1.1-5.05.75l.2-.8-.15-.6q-.15-.75-.8-1.3-.6-.55-2.8-.95 3.1-1 4.1-1.8l.05-.3.1-2.35q-.05-3.5-1.15-5.05-3.4-4.6-7.45 1.2l-.15.2-.1-.05-.05-.1-.05-.1q-4.05-5.6-7.2-1.3-1.05 1.3-1.35 4.45-.15 1.6.1 3.1v.15q1.25 1.05 4.4 1.95-2.4.4-3.25.9-.85.55-1 1.45v.2q.05.6.25 1.1-2.5.25-4.75-.75-3.1-1.4-3.95-4.65v-.1q-.6-2.6.9-4.5l1.1-1.05 1.65 1.45q4.1-9.75 11.35-10.95L28 7.1l1.65 14q7.7.75 11.75 11.3l1.85-1.65 1.1 1.05q1.5 1.9.9 4.5v.1q-.9 3.25-3.95 4.65m-5.65-10.5-.4.9q-2 3.35-6.45 3.55 2.1-3.55 6.85-4.45m-15 0q4.75.9 6.8 4.45Q23 34.8 21 31.45l-.35-.9" fill="#f09" fill-rule="evenodd" transform="translate(-11.1 -7.1)" id="b"/><g id="a"><path d="M50.85 23.5 57 27.3l-5.9 4.15 4.55 5.6L48.7 39l2.3 6.8-7.25-.6-.1 7.3-6.55-3.1-2.65 6.75-5.1-5.15-4.75 5.5-3.1-6.55-6.35 3.45-.6-7.2-7.2 1.15L9.2 40.3l-7.1-1.35 4.1-5.9L0 29.2l5.95-4.1-4.55-5.65 7-1.95-2.3-6.8 7.2.6.1-7.25 6.65 3L22.6.35l5.2 5.1 4.75-5.4L35.6 6.5l6.35-3.4.65 7.15 7.15-1.05-1.85 6.95 7.1 1.4-4.15 5.95m-31.5 6.45q0 1.3.5 1.65l.1-.05h-.1q-.4-.2-.5-1.6m17.2 1.2h.15-.15L36 31q-1.75-.8-3.45-.3l-1 .3 1-.25q1.7-.55 3.4.25l.6.15m-11.4-3.8.1.15.25-.15h-.35m.2 2.85.05-.05h-.15l-.1.05h.2m-.05.85.85.05-.85-.05-2.65-.25-.45.15.4-.1 2.7.2" fill="#fff" fill-rule="evenodd" transform="translate(1 .95)"/><path d="m51.85 24.45 6.15 3.8-5.9 4.15 4.55 5.6-6.95 1.95 2.3 6.8-7.25-.6-.1 7.3-6.55-3.1-2.65 6.75-5.1-5.15-4.75 5.5-3.1-6.55-6.35 3.45-.6-7.2-7.2 1.15 1.85-7.05-7.1-1.35L7.2 34 1 30.15l5.95-4.1L2.4 20.4l7-1.95-2.3-6.8 7.2.6.1-7.25 6.65 3 2.55-6.7 5.2 5.1L33.55 1l3.05 6.45 6.35-3.4.65 7.15 7.15-1.05-1.85 6.95 7.1 1.4-4.15 5.95Z" fill="none" stroke="#f09" stroke-linecap="round" stroke-linejoin="round" stroke-width="2"/></g></defs></svg>

<?xml version="1.0" encoding="UTF-8" standalone="no"?>
<svg xmlns:xlink="http://www.w3.org/1999/xlink" height="58.45px" width="59.0px" xmlns="http://www.w3.org/2000/svg">
  <g transform="matrix(1.0, 0.0, 0.0, 1.0, 1.0, 0.95)">
    <use height="58.45" transform="matrix(1.0, 0.0, 0.0, 1.0, -1.0, -0.95)" width="59.0" xlink:href="#shape0"/>
    <use height="34.8" transform="matrix(1.0, 0.0, 0.0, 1.0, 11.1, 7.1)" width="34.3" xlink:href="#shape1"/>
  </g>
  <defs>
    <g id="shape0" transform="matrix(1.0, 0.0, 0.0, 1.0, 1.0, 0.95)">
      <path d="M50.85 23.5 L57.0 27.3 51.1 31.45 55.65 37.05 48.7 39.0 51.0 45.8 43.75 45.2 43.65 52.5 37.1 49.4 34.45 56.15 29.35 51.0 24.6 56.5 21.5 49.95 15.15 53.4 14.55 46.2 7.35 47.35 9.2 40.3 2.1 38.95 6.2 33.05 0.0 29.2 5.95 25.1 1.4 19.45 8.4 17.5 6.1 10.7 13.3 11.3 13.4 4.05 20.05 7.05 22.6 0.35 27.8 5.45 32.55 0.05 35.6 6.5 41.95 3.1 42.6 10.25 49.75 9.2 47.9 16.15 55.0 17.55 50.85 23.5 M19.35 29.95 Q19.35 31.25 19.85 31.6 L19.95 31.55 19.85 31.55 Q19.45 31.35 19.35 29.95 M36.55 31.15 L36.7 31.15 36.55 31.15 36.0 31.0 Q34.25 30.2 32.55 30.7 L31.55 31.0 32.55 30.75 Q34.25 30.2 35.95 31.0 L36.55 31.15 M25.15 27.35 L25.25 27.5 25.5 27.35 25.15 27.35 M25.35 30.2 L25.4 30.15 25.35 30.15 25.25 30.15 25.15 30.2 25.35 30.2 M25.3 31.05 L26.15 31.1 25.3 31.05 22.65 30.8 22.2 30.95 22.6 30.85 25.3 31.05" fill="#ffffff" fill-rule="evenodd" stroke="none"/>
      <path d="M50.85 23.5 L57.0 27.3 51.1 31.45 55.65 37.05 48.7 39.0 51.0 45.8 43.75 45.2 43.65 52.5 37.1 49.4 34.45 56.15 29.35 51.0 24.6 56.5 21.5 49.95 15.15 53.4 14.55 46.2 7.35 47.35 9.2 40.3 2.1 38.95 6.2 33.05 0.0 29.2 5.95 25.1 1.4 19.45 8.4 17.5 6.1 10.7 13.3 11.3 13.4 4.05 20.05 7.05 22.6 0.35 27.8 5.45 32.55 0.05 35.6 6.5 41.95 3.1 42.6 10.25 49.75 9.2 47.9 16.15 55.0 17.55 50.85 23.5 Z" fill="none" stroke="#ff0099" stroke-linecap="round" stroke-linejoin="round" stroke-width="2.0"/>
    </g>
    <g id="shape1" transform="matrix(1.0, 0.0, 0.0, 1.0, -11.1, -7.1)">
      <path d="M41.3 41.05 Q38.85 42.15 36.25 41.8 L36.45 41.0 36.3 40.4 Q36.15 39.65 35.5 39.1 34.9 38.55 32.7 38.15 35.8 37.15 36.8 36.35 L36.85 36.05 36.95 33.7 Q36.9 30.2 35.8 28.65 32.4 24.05 28.35 29.85 L28.2 30.05 28.1 30.0 28.05 29.9 28.0 29.8 Q23.95 24.2 20.8 28.5 19.75 29.8 19.45 32.95 19.3 34.55 19.55 36.05 L19.55 36.2 Q20.8 37.25 23.95 38.15 21.55 38.55 20.7 39.05 19.85 39.6 19.7 40.5 L19.7 40.7 Q19.75 41.3 19.95 41.8 17.45 42.05 15.2 41.05 12.1 39.65 11.25 36.4 L11.25 36.3 Q10.65 33.7 12.15 31.8 L13.25 30.75 14.9 32.2 Q19.0 22.45 26.25 21.25 L28.0 7.1 29.65 21.1 Q37.35 21.85 41.4 32.4 L43.25 30.75 44.35 31.8 Q45.85 33.7 45.25 36.3 L45.25 36.4 Q44.35 39.65 41.3 41.05 M35.65 30.55 L35.25 31.45 Q33.25 34.8 28.8 35.0 30.9 31.45 35.65 30.55 M20.65 30.55 Q25.4 31.45 27.45 35.0 23.0 34.8 21.0 31.45 L20.65 30.55" fill="#ff0099" fill-rule="evenodd" stroke="none"/>
    </g>
  </defs>
</svg>
